X:1218
T:Polska från Hamra
R:Polska
Z:Klas Krantz, 2006
O:Dalarna
L:1/8
M:3/4
K:Bm
"Bm"(3FGFB2F>B | "F#7"^A>B c2 e>f | "Bm"(3ded (3cdc ^A>B | "F#7"c/d/c/^A/ B>A F2 |
"Bm"(3FGFB2F>B | "F#7"^A>B c2 e>f | "Bm"(3ded (3cdc ^A>B | "F#7"c/d/c/^A/ "Bm"B4 :|]
"Bm"f2d>f d>f | "F#7"~f>e c>e c>e | "Bm"e>d B>d B>d | "F#7"de/d/ c>^AF2 |
"Bm"f2d>f d>f | "F#7"~f>e c>e c>e | "Bm"e>d B>d f>d | "F#7"c>^A "Bm"B4 :|]
(:musicend:)

(:music:)
